icons/hands-blue.svg

<svg width="21" height="23" viewBox="0 0 21 23" fill="none" xmlns="http://www.w3.org/2000/svg">
<path fill-rule="evenodd" clip-rule="evenodd" d="M5.07993 17.2331C5.0736 12.6084 5.07043 10.2963 5.07043 10.2963C5.14506 9.25287 5.58198 8.80329 6.38073 8.94757C6.87237 9.19724 7.11661 9.75627 7.11299 10.6238C7.29255 13.1675 7.38255 14.4393 7.38255 14.4393C7.54764 14.9875 7.97144 14.9938 8.6544 14.4583C12.8938 9.80829 15.0132 7.48305 15.0132 7.48305C16.0136 6.86839 16.6505 7.4731 16.3429 8.36955C13.7223 11.6324 12.412 13.2638 12.412 13.2638C12.3202 13.6831 12.5197 13.7984 13.0091 13.6107C16.3235 10.6943 17.9807 9.2366 17.9807 9.2366C18.9848 8.78748 19.5316 9.51883 18.9056 10.4506C15.9508 13.3665 14.4736 14.8247 14.4736 14.8247C14.2741 15.3095 14.4605 15.5343 15.0326 15.499C17.987 13.418 19.4642 12.3773 19.4642 12.3773C19.8608 12.3339 20.1309 12.4049 20.2738 12.5894C20.5239 12.9246 20.5302 13.233 20.2928 13.5144C17.3769 15.8138 15.9187 16.9635 15.9187 16.9635C15.6469 17.4312 15.7753 17.6655 16.304 17.6669C18.5908 16.4461 19.7342 15.836 19.7342 15.836C20.1435 15.7292 20.3941 15.8125 20.4855 16.0866C20.5642 16.4036 20.4231 16.6926 20.0617 16.9536C15.3913 20.2522 12.4722 22.0799 11.3039 22.4359C9.01126 22.8303 7.19351 22.1812 5.85062 20.4896C5.41914 19.5371 5.16224 18.4516 5.07992 17.2331L5.07993 17.2331Z" fill="#3366CC"/>
<path fill-rule="evenodd" clip-rule="evenodd" d="M0.263159 10.8745C1.72542 12.3309 3.08049 13.577 4.32881 14.6127C4.32881 14.6127 4.32881 13.463 4.32881 11.1635C2.0678 9.90435 0.93752 9.27521 0.93752 9.27521C-0.0186259 9.22501 -0.243415 9.75826 0.263151 10.8745H0.263159Z" fill="#3366CC"/>
<path fill-rule="evenodd" clip-rule="evenodd" d="M6.24159 8.18593C5.26509 8.14749 5.04663 8.53284 5.04663 8.53284C5.04663 8.53284 5.04844 6.28178 5.0611 2.02979C5.42113 0.830308 6.80243 1.12159 6.93043 2.14512C7.35422 5.99912 7.5659 7.92588 7.5659 7.92588C8.01095 8.20313 8.28775 8.14478 8.39631 7.75129C8.34384 3.07593 8.31761 0.738511 8.31761 0.738511C8.6817 -0.424785 10.0711 -0.127177 10.3407 1.02753C10.3665 5.78067 10.3796 8.15703 10.3796 8.15703C10.6383 8.28141 10.8889 8.2303 11.1309 8.00279C11.6447 4.29038 11.9016 2.43419 11.9016 2.43419C12.4402 1.45317 13.2725 1.97782 13.4624 2.74265C13.1413 6.55774 12.9807 8.4655 12.9807 8.4655C10.2959 11.3303 8.95354 12.7623 8.95354 12.7623C8.53833 13.2535 8.21042 12.9278 8.16338 12.7049C8.03493 10.5338 7.81195 9.32307 7.81195 9.32307C7.57857 8.62156 6.98426 8.13987 6.24159 8.186L6.24159 8.18593Z" fill="#3366CC"/>
</svg>

<svg width="21" height="23" fill="none" xmlns="http://www.w3.org/2000/svg"><path fill-rule="evenodd" clip-rule="evenodd" d="m5.08 17.233-.01-6.937c.075-1.043.512-1.493 1.31-1.348.492.25.737.808.733 1.676l.27 3.815c.165.549.588.555 1.271.02l6.36-6.976c1-.615 1.637-.01 1.329.887l-3.931 4.894c-.092.42.108.534.597.347 3.314-2.917 4.972-4.374 4.972-4.374 1.004-.45 1.55.282.925 1.214l-4.432 4.374c-.2.485-.014.71.559.674l4.431-3.122c.397-.043.667.028.81.212.25.336.256.644.019.925l-4.374 3.45c-.272.467-.144.702.385.703l3.43-1.831c.41-.107.66-.024.751.25.08.318-.062.607-.423.868-4.67 3.298-7.59 5.126-8.758 5.482-2.293.394-4.11-.255-5.453-1.946-.432-.953-.689-2.038-.771-3.257zM.263 10.874c1.462 1.457 2.817 2.703 4.066 3.739v-3.45L.938 9.276c-.957-.05-1.181.483-.675 1.6z" fill="#36C"/><path fill-rule="evenodd" clip-rule="evenodd" d="M6.242 8.186c-.977-.039-1.195.347-1.195.347s.001-2.251.014-6.503c.36-1.2 1.741-.908 1.87.115l.635 5.78c.445.278.722.22.83-.174L8.318.74c.364-1.164 1.753-.866 2.023.289l.039 7.129c.258.124.509.073.75-.154l.772-5.569c.538-.98 1.37-.456 1.56.309l-.481 5.723-4.027 4.296c-.416.492-.744.166-.79-.057-.13-2.171-.352-3.382-.352-3.382-.233-.701-.828-1.183-1.57-1.137z" fill="#36C"/></svg>
